svg/regular/bx-border-outer.svg

<svg xmlns="http://www.w3.org/2000/svg" width="24" height="24"><path d="M11 7h2v2h-2zm0 8h2v2h-2zm-4-4h2v2H7zm8 0h2v2h-2zm-4 0h2v2h-2z"/><path d="M19 3H3v18h18V3h-2zm0 4v12H5V5h14v2z"/></svg>

<svg xmlns="http://www.w3.org/2000/svg" width="24" height="24" viewBox="0 0 24 24"><path d="M11 7H13V9H11zM11 15H13V17H11zM7 11H9V13H7zM15 11H17V13H15zM11 11H13V13H11z"/><path d="M19,3h-2h-2h-2h-2H9H7H5H3v2v2v2v2v2v2v2v2v2h2h2h2h2h2h2h2h2h2v-2v-2v-2v-2v-2V9V7V5V3H19z M19,7v2v2v2v2v2v2h-2h-2h-2 h-2H9H7H5v-2v-2v-2v-2V9V7V5h2h2h2h2h2h2h2V7z"/></svg>
